X:1
T:Captain Kelley's -- Reel
R:reel
B:Ryan's Mammoth Collection
N: 44
Z: Contributed by Ray Davies,  ray:davies99.freeserve.co.uk
M:2/4
L:1/16
K:G
uD2"^Segno"|\
GBAF G2ge | dBAc BE~E2 | GBAF G2ge | dBAB G2G2 |
G2ef (3ggg.g.e | dBAc BE~E2 | G2ef {a}gfge | dBAB G2|]
ud2|\
|:g2bg agbg | d2fd adfd | g2bg agbg | dgfa g2d2 |
g2bg agbg | (3ddd.f.d adfd | gafg efdf | egfa gedB "^Segno":|
